X:2790
T:Ceili na gCnoc
R:reel
Z:id:hn-reel-447
M:C|
K:Ador
g|:eA~A2 efge|dG~G2 DGBd|eA~A2 efge|dBGA BAAg|eA~A2 efge|1 dG~G2 (3BAG Bd|
eA~A2 efge|dBGA BAAg:|2 dBGA BABd|eA~A2 efge|dBGA BABd||
|:ea~a2 agag|eaag e2dg|ea~a2 agaf|gedB GABd|
ea~a2 agag|eaaf ~g3a|agbg abga|1 edgd BAAd:|2 edgd BAA||


